X:1
T:Lord Glenorchy's Strathspey
L:1/8
M:4/4
I:linebreak $
K:F
V:1 treble 
V:1
 c | f>g{fg}a>g f<d d>f | c<AfA TG>F G<A | f>g{fg}a>g fddf | c<A f>A F2 F :| A/B/ |$ %6
 c<F c>A c<FA<g | f>c d/c/B/A/ d<GGf |1 c<F Tc>A c>FA<g | f<d c>A F2 F :|2$ c<F Tc>A f<ag<a | %11
 f<b a>g f2 f || %12
